src/lib/packages/icons/src/assets/filled/folder-clock.svg

<svg xmlns="http://www.w3.org/2000/svg" width="24" height="24" fill="none"><path fill="currentColor" d="M13.291 14.084a.5.5 0 0 1-.708.707l-.938-.937a.5.5 0 0 1-.146-.354v-1.312a.5.5 0 0 1 1 0v1.105l.792.791ZM21 10v7c0 2-1 3-3 3H6c-2 0-3-1-3-3V7c0-2 1-3 3-3h4l3 3h5c2 0 3 1 3 3Zm-5.5 3.5a3.5 3.5 0 1 0-7 0 3.5 3.5 0 0 0 7 0Z"/></svg>

<svg width="24" height="24" viewBox="0 0 24 24" fill="none" xmlns="http://www.w3.org/2000/svg">
<path d="M13.291 14.084C13.486 14.279 13.486 14.596 13.291 14.791C13.193 14.889 13.065 14.937 12.937 14.937C12.809 14.937 12.681 14.888 12.583 14.791L11.645 13.854C11.551 13.76 11.499 13.633 11.499 13.5V12.188C11.499 11.912 11.723 11.688 11.999 11.688C12.275 11.688 12.499 11.912 12.499 12.188V13.293L13.291 14.084ZM21 10V17C21 19 20 20 18 20H6C4 20 3 19 3 17V7C3 5 4 4 6 4H10L13 7H18C20 7 21 8 21 10ZM15.5 13.5C15.5 11.567 13.933 10 12 10C10.067 10 8.5 11.567 8.5 13.5C8.5 15.433 10.067 17 12 17C13.933 17 15.5 15.433 15.5 13.5Z" fill="currentColor"/>
</svg>
